svg/furkot/material-design/taxi.svg

<svg viewBox="0 0 512 512" xmlns="http://www.w3.org/2000/svg"><path d="m452.836 85.617c-5.831-16.782-21.76-28.729-40.391-28.729h-71.112v-56.888h-170.666v56.889h-71.111c-18.631 0-34.56 11.947-40.391 28.73l-59.165 170.381v227.556c0 15.644 12.8 28.444 28.444 28.444h28.444c15.788 0 28.445-12.8 28.445-28.444v-28.444h341.334v28.444c0 15.644 12.8 28.444 28.444 28.444h28.444c15.786 0 28.444-12.8 28.444-28.444v-227.556zm-353.28 284.16c-23.609 0-42.667-19.057-42.667-42.666s19.058-42.667 42.667-42.667 42.667 19.057 42.667 42.667-19.059 42.666-42.667 42.666zm312.888 0c-23.609 0-42.667-19.057-42.667-42.666s19.058-42.667 42.667-42.667 42.667 19.057 42.667 42.667-19.058 42.666-42.667 42.666zm-355.555-142.221 42.667-128h312.889l42.667 128z"/></svg>

<svg xmlns="http://www.w3.org/2000/svg" viewBox="0 0 512 512"><path d="M452.836 85.617C447.005 68.835 431.076 56.888 412.445 56.888H341.333V0H170.667V56.889H99.556C80.925 56.889 64.996 68.836 59.165 85.619L0 256V483.556C0 499.2 12.8 512 28.444 512H56.888C72.676 512 85.333 499.2 85.333 483.556V455.112H426.667V483.556C426.667 499.2 439.467 512 455.111 512H483.555C499.341 512 511.999 499.2 511.999 483.556V256L452.836 85.617ZM99.556 369.777C75.947 369.777 56.889 350.72 56.889 327.111S75.947 284.444 99.556 284.444 142.223 303.501 142.223 327.111 123.164 369.777 99.556 369.777ZM412.444 369.777C388.835 369.777 369.777 350.72 369.777 327.111S388.835 284.444 412.444 284.444 455.111 303.501 455.111 327.111 436.053 369.777 412.444 369.777ZM56.889 227.556L99.556 99.556H412.445L455.112 227.556H56.889Z"/></svg>
